packages/blockchain-info-components/src/Images/img/qr-logo.svg

<svg fill="none" height="48" viewBox="0 0 48 48" width="48" xmlns="http://www.w3.org/2000/svg" xmlns:xlink="http://www.w3.org/1999/xlink"><clipPath id="a"><path d="m8 8h32v32h-32z"/></clipPath><circle cx="24" cy="24" fill="#fff" r="24"/><g clip-path="url(#a)"><path d="m10.7381 19.6294-1.46002 1.46c-.4041.3882-.7256.854-.94522 1.3696-.21963.5155-.33283 1.0701-.33283 1.6304 0 .5604.1132 1.1149.33283 1.6304.21962.5156.54112.9814.94522 1.3696l11.76192 11.8781c.2788.2851.6033.5217.96.7v-14.3981z" fill="#3d89f5"/><path d="m37.262 19.6294 1.46 1.46c.4041.3882.7256.854.9452 1.3696.2196.5155.3328 1.0701.3328 1.6304 0 .5604-.1132 1.1149-.3328 1.6304-.2196.5156-.5411.9814-.9452 1.3696l-11.762 11.8781c-.2788.2851-.6032.5217-.96.7v-14.3981z" fill="#1656b9"/><path d="m34.4381 16.6493-7.36-7.38003c-.3896-.40159-.8559-.72087-1.3713-.9389-.5153-.21803-1.0691-.33037-1.6287-.33037-.5595 0-1.1134.11234-1.6287.33037-.5154.21803-.9816.53731-1.3713.9389l-7.38 7.38003 10.34 5.16z" fill="#85b5f8"/></g></svg>

<svg width="48" height="48" viewBox="0 0 48 48" fill="none" xmlns="http://www.w3.org/2000/svg">
<circle cx="24" cy="24" r="24" fill="white"/>
<g clip-path="url(#clip0)">
<path d="M10.7381 19.6294L9.27808 21.0894C8.87398 21.4776 8.55248 21.9434 8.33286 22.459C8.11323 22.9745 8.00003 23.5291 8.00003 24.0894C8.00003 24.6498 8.11323 25.2043 8.33286 25.7198C8.55248 26.2354 8.87398 26.7012 9.27808 27.0894L21.04 38.9675C21.3188 39.2526 21.6433 39.4892 22 39.6675V25.2694L10.7381 19.6294Z" fill="#3D89F5"/>
<path d="M37.262 19.6294L38.722 21.0894C39.1261 21.4776 39.4476 21.9434 39.6672 22.459C39.8868 22.9745 40 23.5291 40 24.0894C40 24.6498 39.8868 25.2043 39.6672 25.7198C39.4476 26.2354 39.1261 26.7012 38.722 27.0894L26.96 38.9675C26.6812 39.2526 26.3568 39.4892 26 39.6675V25.2694L37.262 19.6294Z" fill="#1656B9"/>
<path d="M34.4381 16.6493L27.0781 9.26927C26.6885 8.86768 26.2222 8.5484 25.7068 8.33037C25.1915 8.11234 24.6377 8 24.0781 8C23.5186 8 22.9647 8.11234 22.4494 8.33037C21.934 8.5484 21.4678 8.86768 21.0781 9.26927L13.6981 16.6493L24.0381 21.8093L34.4381 16.6493Z" fill="#85B5F8"/>
</g>
<defs>
<clipPath id="clip0">
<rect width="32" height="32" fill="white" transform="translate(8 8)"/>
</clipPath>
</defs>
</svg>
